X:14
T:Bach Double
C:Johann Sebastian Bach - Key Bm
N:Originally Transcribed for Guitar by Chief Noda from the Flatpick-L list TablEdited by Kim Davis
L:1/8
Q:1/4=225
M:9/8
K:D
|: Bdf ged cag | fdc dAF Ddc | BGF Eed =FcB | ^Afc AGF EDC | DFB CBA B,AG | A,CE Gce ^Afe | 
dBA Ged c^AB |1 F^Ac fgf edc :|2 fc^A F3 z3 |: Fc^a acF EDC | DFB dfb a^gf | e^Gd cAf dB^g | 
aec Ace gfe | ^dA=c' beG Fda | =cAE ^DBa g^de | Agf BGe Fe^d | eBG EGB efg | aed cBA GFE | 
FAc dfe fAD | G,DB cba gef | ecB cA^G AE=G | ^Ace gfe dec | dBc dfe fAF | GBf ecd c^AB | 
^AcB A^GF EDC | DFB B^Ac cBd | dB^G EGB d^gb | EGc cBd dce | ec^A FAc e^ac' | 
dbF caE BgD | CEG ^Ace gfe |1 ^ab=f ^fcd FB^A | BFD B,DF Bcd :|2 ^ab=f ^fcd FB^A | 
B,DF Bdf b3 | 
 

